X:21
T:Mary Willie's
M:12/8
L:1/8
%Q:3/8=130
Q:3/8=110
R:slide
K:Dmaj
A6 A3 A2A |
%
|:d2 ef2 e dcd ~B3|g2 A cBA e2 A cBA|
|d2 ef2 e dcd ~B3|g2 A cBA d3 d2 A:|
|:d2 ef2 a baf a2 f|e2 A cBA efe cBA|
|d2 ef2 a baf a2 f|e2 A cBA d3 d2 A:|
%
|:d2 ef2 e dcd ~B3|g2 A cBA e2 A cBA|
|d2 ef2 e dcd ~B3|g2 A cBA d3 d2 A:|
|:d2 ef2 a baf a2 f|e2 A cBA efe cBA|
|d2 ef2 a baf a2 f|e2 A cBA d3 d2 A:|
%
|:d2 ef2 e dcd ~B3|g2 A cBA e2 A cBA|
|d2 ef2 e dcd ~B3|g2 A cBA d3 d2 A:|
|:d2 ef2 a baf a2 f|e2 A cBA efe cBA|
|d2 ef2 a baf a2 f|e2 A cBA d3 d2 A:|
%
|:d2 ef2 e dcd ~B3|g2 A cBA e2 A cBA|
|d2 ef2 e dcd ~B3|g2 A cBA d3 d2 A:|
|:d2 ef2 a baf a2 f|e2 A cBA efe cBA|
|d2 ef2 a baf a2 f|e2 A cBA d3 d2 A:|
%
|:d2 ef2 e dcd ~B3|g2 A cBA e2 A cBA|
|d2 ef2 e dcd ~B3|g2 A cBA d3 d2 A:|
|:d2 ef2 a baf a2 f|e2 A cBA efe cBA|
|d2 ef2 a baf a2 f|e2 A cBA d3 d2 A:|
%
|:d2 ef2 e dcd ~B3|g2 A cBA e2 A cBA|
|d2 ef2 e dcd ~B3|g2 A cBA d3 d2 A:|
|:d2 ef2 a baf a2 f|e2 A cBA efe cBA|
|d2 ef2 a baf a2 f|e2 A cBA d3 d2 A:|
%

